X:1
T:Una Mas - Kenny Dorham

K:Bb
L:1/8
"F7b13"z2 _A2 zA z2 |"Bb7"z2 g, zg, z   |"F7"z2 _A2 zAz(g,    |"Bb7"g,)^f,g,f, g,z  z2|  
"Bb7" z2 _d2 zd z2  |"Eb7"z2 c2 zc z2   |"Bb7"z2 _d2 zd zc    |"Eb7"z2    zc   fecB|
"Ab-7"c4- c B2 e-|"Db7"e4- e _A2 (g,|"Gb"g,4 g,) f,2 B     |"B7" z2    zg,  _Bg, f,c,|
"F7"e,8            |"Bb7"z2 zB, E_D B,F,  |"F7"     (_A,8        |"Bb7"_A,6) z2||

